X:5083
T:The Battle-Frenzy
M:6/8
R:Jig
L:1/8
Q:180
C:Aidan Crossey
K:C
|:Gcc dcc|gcc aga|Gcc dcd|eg^g d2d|
Gcc dcc|gcc aga|fgf edc|GAB c3:||
|:Acc .g2g|aga ged|Acc .g2g|age d2c|
Acc .g2g|aga ged|fgf edc|GAB c3:||
